texon_1.svg

<svg viewBox="0 0 24 24" xmlns="http://www.w3.org/2000/svg"><path d="M13.8374 14.4899C14.0612 14.2584 14.223 13.9673 14.2847 13.6214C15.1685 14.0891 16.051 13.6057 16.3557 12.5353C17.3942 13.3367 18.6765 13.0324 19.057 11.749C20.2753 12.553 21.553 11.3224 21.5885 10.1162C22.2447 10.1922 22.9142 9.97259 23.4239 9.41881C24.2499 8.52103 24.1622 7.14555 23.3236 6.31399C23.3816 6.13755 23.4308 5.95955 23.4622 5.77896C24.0585 2.33703 17.1843 4.26629 15.512 4.87599C15.506 4.8271 15.4927 4.77718 15.469 4.72747C14.742 3.2071 12.3513 2.20125 10.7484 2.14962C9.17548 2.09895 8.72585 3.36903 8.6897 4.66103C7.40792 3.67332 5.8577 3.43029 4.24459 4.4377C2.53822 5.50333 2.20962 7.58044 2.82637 9.31681C1.60999 9.42777 0.558067 10.8202 0.701104 11.9946C0.844215 13.1704 1.85296 14.0405 2.9794 14.2425C0.807919 15.2552-1.24628 17.6919 0.92266 19.8588C2.24733 21.1824 4.80348 21.0122 6.49163 21.2262C10.4505 21.7279 14.4286 21.1913 18.3916 21.8045C20.2163 22.0869 25.2409 21.1404 23.2446 18.063C21.279 15.0332 17.526 14.4327 13.8374 14.4899ZM14.823 12.7733C15.1051 12.6587 15.3859 12.5412 15.6662 12.4227C15.5762 12.8261 15.292 12.9383 14.823 12.7733ZM17.1413 11.7675C17.5126 11.5925 17.8816 11.4121 18.2463 11.2216C18.2836 11.2021 18.3229 11.1798 18.3607 11.1597C18.3791 11.8582 17.9716 12.0594 17.1413 11.7675ZM19.1456 10.7116C19.6146 10.4264 20.1002 10.0981 20.5714 9.73385C20.5931 9.74844 20.6133 9.76703 20.6354 9.78074C21.0358 10.7263 19.8241 11.6037 19.1456 10.7116ZM22.8008 8.79266C22.4786 9.30029 21.9612 9.44333 21.4402 9.38207C21.3986 9.29748 21.3493 9.21496 21.2896 9.13659C21.904 8.5854 22.4505 7.9714 22.8505 7.31577C23.112 7.76496 23.1341 8.26681 22.8008 8.79266ZM19.445 20.7962C18.6094 20.7016 17.7782 20.5769 16.9517 20.4222C14.4354 19.983 11.7719 20.25 9.22778 20.2269C7.84748 20.2143 6.49066 20.0761 5.1234 19.9018C4.34 19.8479 3.56318 19.7419 2.79288 19.5844C1.95148 16.5984 2.51977 15.0212 4.49733 14.853C5.17392 14.7129 4.88481 13.6931 4.21333 13.8236C4.21148 13.8239 4.20948 13.8245 4.20777 13.8249C4.17474 13.76 4.12592 13.7038 4.04666 13.6813C3.06437 13.4032 2.04955 13.0893 1.75273 11.9867C1.4677 10.9279 2.53236 10.6295 3.27881 10.2282C3.56948 10.5138 4.18844 10.2432 4.01207 9.80874C2.54511 6.19525 6.25955 2.99488 8.95748 6.47903C9.33259 6.96348 9.96519 6.41807 9.88007 5.94236C9.02622 1.16318 13.0158 4.32873 14.8974 5.29836C14.9247 5.31244 14.9512 5.31725 14.9783 5.3257C14.8403 5.74748 15.1356 6.28948 15.6497 6.08444C17.0627 5.52051 18.5278 5.14155 20.0449 4.99955C20.6335 4.94444 21.225 4.96977 21.8002 5.10436C23.2957 5.45422 20.7968 7.81481 20.4496 8.16444C17.1281 11.5127 12.0555 12.0799 8.15778 14.5206C7.96385 14.642 7.91096 14.8218 7.94681 14.9841C7.68607 15.2012 7.76096 15.6899 8.1957 15.7149C10.6508 15.8562 13.1067 15.6919 15.5645 15.7721C17.5852 15.8379 19.6668 16.1417 21.3244 17.4263C21.7408 19.9985 21.1143 21.1219 19.445 20.7962ZM13.534 13.2864C13.6211 14.3511 12.2793 14.8499 11.6417 14.0279C12.2719 13.779 12.9031 13.5333 13.534 13.2864ZM11.3612 14.6086C10.8727 14.645 10.391 14.685 9.92556 14.7266C10.3333 14.5533 10.7436 14.3862 11.155 14.2212C11.2035 14.3723 11.2755 14.4983 11.3612 14.6086ZM18.427 7.04822C18.4163 6.23585 17.1767 6.23585 17.166 7.04822C17.1651 7.11214 17.1644 7.17614 17.1634 7.24007C17.1525 8.05585 18.4402 8.05585 18.4293 7.24007L18.427 7.04822ZM21.3163 6.02555C21.2527 5.96103 21.1894 5.89651 21.1261 5.83185C21.0796 5.78459 21.0287 5.76155 20.9788 5.73288C20.9287 5.62599 20.8309 5.54303 20.6768 5.54303C20.5073 5.54303 20.4016 5.64044 20.3576 5.76288C20.0536 5.96666 19.8905 6.3997 20.2273 6.72992C20.2918 6.79318 20.3565 6.85659 20.4211 6.91992C21.0043 7.49185 21.8885 6.60807 21.3163 6.02555ZM8.13948 8.27622C7.91237 7.70874 7.32985 7.21607 6.70622 7.01777C6.61489 6.91303 6.47007 6.86288 6.32326 6.93977C6.24778 6.9314 6.17215 6.92251 6.09778 6.92444C5.61933 6.93703 5.26592 7.26066 5.22022 7.73496C5.19422 8.00429 5.2674 8.27689 5.38163 8.53829C5.30592 9.09718 5.44266 9.64444 5.95363 9.92311C6.90155 10.4399 8.59667 9.41955 8.13948 8.27622ZM13.365 6.3057C13.3165 5.95503 13.0207 5.69755 12.6763 5.50222C12.586 5.33977 12.4461 5.2134 12.2766 5.11525C12.2819 5.10614 12.2863 5.09636 12.2916 5.08733C12.4605 4.8031 12.0499 4.46977 11.8264 4.72859C11.7841 4.7777 11.7427 4.82888 11.7013 4.87992C11.518 4.82444 11.3376 4.77918 11.1844 4.7357C10.9288 4.6631 10.6658 4.86555 10.6667 5.12977C10.6682 5.53644 10.6462 5.95525 10.8739 6.31103C10.9476 6.42599 11.2464 6.67533 11.2653 6.78548C11.2846 6.89748 11.3744 6.98429 11.4816 7.03696C11.5865 7.24118 11.8641 7.33237 12.0582 7.20333C12.1923 7.22822 12.3264 7.23948 12.4511 7.22807C12.9584 7.1817 13.4433 6.8734 13.365 6.3057Z" fill="#121212"/></svg>

<svg viewBox="0 0 24 24" xmlns="http://www.w3.org/2000/svg"><path d="M13.837 14.49c.224-.232.386-.523.448-.869.883.468 1.766-.015 2.07-1.086 1.04.802 2.322.497 2.702-.786 1.218.804 2.496-.427 2.532-1.633a2.124 2.124 0 0 0 1.835-.697c.826-.898.738-2.273-.1-3.105.058-.176.107-.354.138-.535.596-3.442-6.278-1.513-7.95-.903a.478.478 0 0 0-.043-.149c-.727-1.52-3.118-2.526-4.72-2.577-1.574-.051-2.023 1.219-2.06 2.511-1.281-.988-2.831-1.23-4.444-.223C2.538 5.503 2.21 7.58 2.826 9.317 1.61 9.427.558 10.82.701 11.995c.143 1.175 1.152 2.046 2.278 2.248-2.171 1.012-4.225 3.449-2.056 5.616 1.324 1.323 3.88 1.153 5.569 1.367 3.958.502 7.937-.035 11.9.579 1.824.282 6.849-.665 4.853-3.742-1.966-3.03-5.719-3.63-9.408-3.573Zm.986-1.717c.282-.114.563-.232.843-.35-.09.403-.374.515-.843.35Zm2.318-1.005c.372-.176.74-.356 1.105-.546l.115-.062c.018.698-.39.9-1.22.607Zm2.005-1.056c.469-.286.954-.614 1.425-.978.022.014.042.033.064.047.4.945-.81 1.823-1.49.93Zm3.655-1.92c-.322.508-.84.651-1.36.59a1.483 1.483 0 0 0-.151-.245c.614-.552 1.16-1.166 1.56-1.821.262.449.284.95-.05 1.477Zm-3.356 12.004a34.869 34.869 0 0 1-2.493-.374c-2.517-.439-5.18-.172-7.724-.195-1.38-.013-2.737-.15-4.105-.325a17.68 17.68 0 0 1-2.33-.318c-.842-2.986-.273-4.563 1.704-4.731.677-.14.388-1.16-.284-1.03l-.005.002a.26.26 0 0 0-.161-.144c-.983-.278-1.997-.592-2.294-1.694-.285-1.06.78-1.357 1.526-1.759.29.286.91.015.733-.42C2.545 6.196 6.26 2.996 8.957 6.48c.376.484 1.008-.06.923-.537-.854-4.779 3.136-1.613 5.017-.644.028.014.054.02.081.028-.138.421.158.963.672.758A15.801 15.801 0 0 1 20.045 5a5.456 5.456 0 0 1 1.755.104c1.496.35-1.003 2.71-1.35 3.06-3.322 3.349-8.394 3.916-12.292 6.357-.194.121-.247.3-.211.463-.26.217-.186.706.249.73 2.455.142 4.91-.022 7.369.058 2.02.066 4.102.37 5.76 1.654.416 2.573-.21 3.696-1.88 3.37Zm-5.911-7.51c.087 1.065-1.255 1.564-1.892.742.63-.249 1.261-.495 1.892-.742Zm-2.173 1.323c-.488.036-.97.076-1.435.118.407-.174.818-.34 1.229-.506.049.151.12.277.206.388Zm7.066-7.56c-.01-.813-1.25-.813-1.261 0l-.003.191c-.01.816 1.277.816 1.266 0l-.002-.192Zm2.89-1.023a78.698 78.698 0 0 1-.19-.194c-.047-.047-.098-.07-.148-.1a.317.317 0 0 0-.302-.189.322.322 0 0 0-.32.22c-.303.204-.466.637-.13.967l.194.19c.583.572 1.468-.312.895-.894ZM8.138 8.276c-.227-.567-.81-1.06-1.433-1.258-.091-.105-.236-.155-.383-.078-.075-.009-.15-.017-.225-.016-.479.013-.832.337-.878.811-.026.27.047.542.162.803-.076.56.06 1.106.572 1.385.948.517 2.643-.503 2.185-1.647Zm5.226-1.97c-.049-.351-.344-.608-.689-.804a1.037 1.037 0 0 0-.4-.387l.016-.028c.168-.284-.242-.617-.466-.358l-.125.15c-.183-.055-.363-.1-.517-.143a.413.413 0 0 0-.517.394c.001.406-.02.825.207 1.181.074.115.372.364.391.474.02.112.11.2.217.252.104.204.382.295.576.166.134.025.268.036.393.025.507-.046.992-.355.914-.922Z" fill="#121212"/></svg>
